X: 63
T:Caledonian Laddie
R:Hornpipe
S:New Penny Whistle album
Z:Added by alf.warnock@rogers.com
M:4/4
L:1/8
K:D
A2|"D"D2DE FDFA|"G"BABd "A7"e2f2|"D"dcBA BdAF|"A7"G2E2 E2F2|
"D"D2DE FDFA|"G"BABd "A7"e2f2|"D"dcBA "A7"BdAG|"D"F2D2 D2:|
de|f2fd "G"gfed|"A7"cded A2AA|"Bm"BABc "F#7#5"dcde|"Bm"f2B2 B2 (3dcB|
"D"A2AB AFGE|D2d2 d2 (3dcB|A2AF "G"BAGF|"A7"G2E2 E2F2|
"D"D2DE FDFA|"G"BABd "A7"e2f2|"Em"E2EF GEGB|eBef g2ef|
"G"gfed "A7"edcB|"Em"cBAG "A7"ABcA|"D"d2E2 "A7"FGAG|"D"F2D2 D2|]

